build/img/menu-item-bottom.svg

<svg width="199" height="10" viewBox="0 0 199 10" fill="none" xmlns="http://www.w3.org/2000/svg">
<path d="M105.226 -8.198e-06C108.683 -7.89577e-06 111.06 2.19999 113.004 3.79999C114.733 5.19999 116.678 6.79999 118.838 6.79999C119.486 6.79999 120.135 6.59999 120.351 6.39999C121.215 5.99999 122.295 5.19999 122.079 3.59999C121.863 2.79999 121.431 1.99999 120.783 1.59999C120.135 1.19999 119.054 1.19999 118.406 1.79999C118.19 1.99999 117.758 1.99999 117.542 1.79999C117.326 1.59999 117.326 1.19999 117.542 0.999993C118.622 -0.200007 120.135 -6.89463e-06 121.431 0.599994C122.295 1.19999 123.16 2.19999 123.376 3.59999C123.592 5.19999 122.727 6.59999 120.999 7.39999C120.351 7.59999 119.702 7.79999 118.838 7.79999C116.029 7.99999 113.869 6.19999 111.924 4.59999C109.331 2.39999 107.17 0.599992 103.929 1.19999C102.633 1.39999 101.553 1.99999 100.904 2.99999C100.256 3.99999 100.04 4.99999 100.472 6.19999C100.904 7.79999 102.417 8.39999 103.497 8.59999C104.794 8.79999 105.874 8.19999 106.306 7.39999C106.522 7.19999 106.738 6.99999 107.17 7.19999C107.387 7.39999 107.603 7.59999 107.387 7.99999C106.738 9.39999 105.01 9.99999 103.497 9.99999C101.553 9.79999 99.8241 8.59999 99.392 6.79999C98.9598 5.39999 99.1759 3.79999 99.8241 2.59999C100.688 1.39999 101.985 0.599992 103.497 0.399992C104.145 -7.33877e-06 104.578 -8.25467e-06 105.226 -8.198e-06Z" fill="#D8D0C8"/>
<path d="M105.092 5.95959C104.441 6.44454 104.338 7.32589 104.862 7.92813C105.386 8.53038 106.338 8.62546 106.989 8.14051C107.64 7.65556 107.742 6.77422 107.218 6.17197C106.694 5.56973 105.742 5.47464 105.092 5.95959Z" fill="#D8D0C8"/>
<path d="M117.805 0.869731C117.154 1.35468 117.052 2.23603 117.576 2.83827C118.099 3.44052 119.052 3.5356 119.702 3.05065C120.353 2.5657 120.456 1.68436 119.932 1.08211C119.408 0.479871 118.456 0.384781 117.805 0.869731Z" fill="#D8D0C8"/>
<path d="M93.9902 -9.18025e-06C94.4224 -9.14247e-06 94.8545 -8.15101e-06 95.2867 0.199992C97.0152 0.399992 98.3116 1.19999 98.9598 2.39999C99.8241 3.59999 100.04 5.19999 99.392 6.59999C98.9598 8.39999 97.2313 9.59999 95.2867 9.79999C93.5581 9.99999 92.0456 9.19999 91.1813 7.79999C90.9653 7.59999 91.1813 7.19999 91.3974 6.99999C91.6135 6.79999 92.0456 6.99999 92.2617 7.19999C92.6938 8.19999 93.7742 8.59999 95.0706 8.39999C96.1509 8.39999 97.6634 7.59999 98.0956 5.99999C98.5277 4.79999 98.3116 3.59999 97.6634 2.79999C97.0152 1.99999 96.1509 1.39999 94.6384 0.999991C91.3974 0.39999 89.0206 2.19999 86.6439 4.39999C84.6992 5.99999 82.5386 7.79999 79.7297 7.59999C78.8654 7.59999 78.2172 7.39999 77.569 7.19999C75.8404 6.39999 74.9761 4.99999 75.1922 3.39999C75.4083 2.19999 76.0565 0.999989 77.1368 0.59999C78.2172 -1.05592e-05 79.9457 -1.04081e-05 81.0261 0.99999C81.2421 1.19999 81.2421 1.59999 81.0261 1.79999C80.81 1.99999 80.3779 1.99999 80.1618 1.79999C79.5136 1.19999 78.6493 1.19999 77.785 1.59999C77.1368 1.99999 76.4886 2.79999 76.4886 3.59999C76.2725 4.99999 77.3529 5.79999 78.2172 6.19999C78.6493 6.39999 79.2975 6.59999 79.7297 6.59999C81.8903 6.59999 84.051 5.19999 85.5635 3.59999C87.9403 2.19999 90.5331 -9.48248e-06 93.9902 -9.18025e-06Z" fill="#D8D0C8"/>
<path d="M91.6402 6.12377C91.1163 6.72601 91.219 7.60736 91.8697 8.09231C92.5203 8.57726 93.4725 8.48217 93.9964 7.87993C94.5203 7.27768 94.4176 6.39634 93.7669 5.91139C93.1163 5.42644 92.1641 5.52152 91.6402 6.12377Z" fill="#D8D0C8"/>
<path d="M79.0838 1.08021C78.5598 1.68246 78.6626 2.5638 79.3132 3.04875C79.9638 3.5337 80.916 3.43862 81.4399 2.83637C81.9638 2.23413 81.8611 1.35278 81.2105 0.86783C80.5598 0.38288 79.6077 0.477967 79.0838 1.08021Z" fill="#D8D0C8"/>
<path d="M1.72856 3.79998L76.2725 3.79999C76.7047 3.79999 76.9207 3.99999 76.9207 4.39999C76.9207 4.79999 76.7047 4.99999 76.2725 4.99999L1.72856 4.99998C1.29642 4.99998 1.08035 4.79998 1.08035 4.39998C1.08035 3.99998 1.29642 3.79998 1.72856 3.79998Z" fill="#D8D0C8"/>
<path d="M122.727 3.79999L197.271 3.8C197.704 3.8 197.92 4 197.92 4.4C197.92 4.8 197.704 5 197.271 5L122.727 4.99999C122.295 4.99999 122.079 4.79999 122.079 4.39999C122.079 3.99999 122.511 3.79999 122.727 3.79999Z" fill="#D8D0C8"/>
<path d="M197.271 2.8C196.317 2.8 195.543 3.51634 195.543 4.4C195.543 5.28366 196.317 6 197.271 6C198.226 6 199 5.28366 199 4.4C199 3.51634 198.226 2.8 197.271 2.8Z" fill="#D8D0C8"/>
<path d="M1.72856 2.79998C0.773896 2.79998 1.58256e-05 3.51633 1.57484e-05 4.39998C1.56711e-05 5.28364 0.773896 5.99998 1.72856 5.99998C2.68321 5.99998 3.45712 5.28364 3.45712 4.39998C3.45712 3.51633 2.68321 2.79998 1.72856 2.79998Z" fill="#D8D0C8"/>
</svg>

<svg width="199" height="10" fill="none" xmlns="http://www.w3.org/2000/svg"><path d="M105.226 0c3.457 0 5.834 2.2 7.778 3.8 1.729 1.4 3.674 3 5.834 3 .648 0 1.297-.2 1.513-.4.864-.4 1.944-1.2 1.728-2.8-.216-.8-.648-1.6-1.296-2-.648-.4-1.729-.4-2.377.2-.216.2-.648.2-.864 0-.216-.2-.216-.6 0-.8 1.08-1.2 2.593-1 3.889-.4.864.6 1.729 1.6 1.945 3 .216 1.6-.649 3-2.377 3.8-.648.2-1.297.4-2.161.4-2.809.2-4.969-1.6-6.914-3.2-2.593-2.2-4.754-4-7.995-3.4-1.296.2-2.376.8-3.025 1.8-.648 1-.864 2-.432 3.2.432 1.6 1.945 2.2 3.025 2.4 1.297.2 2.377-.4 2.809-1.2.216-.2.432-.4.864-.2.217.2.433.4.217.8-.649 1.4-2.377 2-3.89 2-1.944-.2-3.673-1.4-4.105-3.2-.432-1.4-.216-3 .432-4.2.864-1.2 2.161-2 3.673-2.2.648-.4 1.081-.4 1.729-.4z" fill="#D8D0C8"/><path d="M105.092 5.96c-.651.485-.754 1.366-.23 1.968.524.602 1.476.697 2.127.213.651-.485.753-1.367.229-1.969-.524-.602-1.476-.697-2.126-.212zM117.805.87c-.651.485-.753 1.366-.229 1.968.523.603 1.476.698 2.126.213.651-.485.754-1.367.23-1.969-.524-.602-1.476-.697-2.127-.212zM93.99 0c.432 0 .865 0 1.297.2 1.728.2 3.025 1 3.673 2.2.864 1.2 1.08 2.8.432 4.2-.432 1.8-2.16 3-4.105 3.2-1.729.2-3.241-.6-4.106-2-.216-.2 0-.6.216-.8.216-.2.649 0 .865.2.432 1 1.512 1.4 2.809 1.2 1.08 0 2.592-.8 3.025-2.4.432-1.2.216-2.4-.433-3.2-.648-.8-1.512-1.4-3.025-1.8-3.24-.6-5.617 1.2-7.994 3.4-1.945 1.6-4.105 3.4-6.914 3.2-.865 0-1.513-.2-2.161-.4-1.729-.8-2.593-2.2-2.377-3.8.216-1.2.865-2.4 1.945-2.8 1.08-.6 2.809-.6 3.89.4.215.2.215.6 0 .8-.217.2-.65.2-.865 0-.648-.6-1.513-.6-2.377-.2-.648.4-1.296 1.2-1.296 2-.217 1.4.864 2.2 1.728 2.6.432.2 1.08.4 1.513.4 2.16 0 4.321-1.4 5.834-3C87.94 2.2 90.534 0 93.99 0z" fill="#D8D0C8"/><path d="M91.64 6.124c-.524.602-.421 1.483.23 1.968.65.485 1.602.39 2.126-.212.524-.602.422-1.484-.23-1.969-.65-.485-1.602-.39-2.126.213zM79.084 1.08c-.524.602-.421 1.484.23 1.969.65.485 1.602.39 2.126-.213.524-.602.421-1.483-.23-1.968-.65-.485-1.602-.39-2.126.212zM1.729 3.8h74.543c.433 0 .649.2.649.6 0 .4-.216.6-.649.6H1.73c-.433 0-.649-.2-.649-.6 0-.4.216-.6.649-.6zm120.998 0h74.544c.433 0 .649.2.649.6 0 .4-.216.6-.649.6h-74.544c-.432 0-.648-.2-.648-.6 0-.4.432-.6.648-.6z" fill="#D8D0C8"/><path d="M197.271 2.8c-.954 0-1.728.716-1.728 1.6 0 .884.774 1.6 1.728 1.6.955 0 1.729-.716 1.729-1.6 0-.884-.774-1.6-1.729-1.6zM1.729 2.8C.774 2.8 0 3.516 0 4.4 0 5.284.774 6 1.729 6c.954 0 1.728-.716 1.728-1.6 0-.884-.774-1.6-1.728-1.6z" fill="#D8D0C8"/></svg>
